images/svg/share.svg

<?xml version="1.0" encoding="UTF-8"?>
<svg width="48px" height="48px" viewBox="0 0 48 48" version="1.1" xmlns="http://www.w3.org/2000/svg" xmlns:xlink="http://www.w3.org/1999/xlink">
    <!-- Uploaded to SVGRepo https://www.svgrepo.com -->
    <title>ic_fluent_share_ios_48_regular</title>
    <desc>Created with Sketch.</desc>
    <g id="🔍-Product-Icons" stroke="none" stroke-width="1" fill="none" fill-rule="evenodd">
        <g id="ic_fluent_share_ios_48_regular" fill="#212121" fill-rule="nonzero">
            <path d="M37.75,20.75 C38.3972087,20.75 38.9295339,21.2418747 38.9935464,21.8721948 L39,22 L39,36.75 C39,39.5770076 36.7655511,41.8821316 33.9664046,41.995621 L33.75,42 L14.25,42 C11.4229924,42 9.11786837,39.7655511 9.00437905,36.9664046 L9,36.75 L9,22 C9,21.3096441 9.55964406,20.75 10.25,20.75 C10.8972087,20.75 11.4295339,21.2418747 11.4935464,21.8721948 L11.5,22 L11.5,36.75 C11.5,38.2125318 12.6417046,39.4084043 14.0824777,39.4949812 L14.25,39.5 L33.75,39.5 C35.2125318,39.5 36.4084043,38.3582954 36.4949812,36.9175223 L36.5,36.75 L36.5,22 C36.5,21.3096441 37.0596441,20.75 37.75,20.75 Z M15.0903301,14.1442911 L22.8685047,6.36611652 C23.3241164,5.91050485 24.0439368,5.88013074 24.5347763,6.27499419 L24.6362716,6.36611652 L32.4144462,14.1442911 C32.9026016,14.6324465 32.9026016,15.4239027 32.4144462,15.9120581 C31.9588346,16.3676697 31.2390141,16.3980439 30.7481746,16.0031804 L30.6466793,15.9120581 L25,10.265 L25,30.5 C25,31.1472087 24.5081253,31.6795339 23.8778052,31.7435464 L23.75,31.75 C23.1027913,31.75 22.5704661,31.2581253 22.5064536,30.6278052 L22.5,30.5 L22.5,10.269 L16.858097,15.9120581 C16.4024854,16.3676697 15.6826649,16.3980439 15.1918254,16.0031804 L15.0903301,15.9120581 C14.6347184,15.4564464 14.6043443,14.736626 14.9992078,14.2457865 L15.0903301,14.1442911 L22.8685047,6.36611652 L15.0903301,14.1442911 Z" id="🎨-Color"></path>
        </g>
    </g>
</svg>

<svg width="48" height="48" xmlns="http://www.w3.org/2000/svg"><g id="🔍-Product-Icons" stroke="none" stroke-width="1" fill="none" fill-rule="evenodd"><g id="ic_fluent_share_ios_48_regular" fill="#212121" fill-rule="nonzero"><path d="M37.75 20.75c.647 0 1.18.492 1.244 1.122L39 22v14.75a5.25 5.25 0 01-5.034 5.246L33.75 42h-19.5a5.25 5.25 0 01-5.246-5.034L9 36.75V22a1.25 1.25 0 012.494-.128L11.5 22v14.75a2.75 2.75 0 002.582 2.745l.168.005h19.5a2.75 2.75 0 002.745-2.582l.005-.168V22c0-.69.56-1.25 1.25-1.25zm-22.66-6.606l7.779-7.778a1.25 1.25 0 011.666-.091l.101.091 7.778 7.778a1.25 1.25 0 01-1.666 1.86l-.101-.092L25 10.265V30.5a1.25 1.25 0 01-1.122 1.244l-.128.006a1.25 1.25 0 01-1.244-1.122L22.5 30.5V10.269l-5.642 5.643a1.25 1.25 0 01-1.666.091l-.102-.09a1.25 1.25 0 01-.09-1.667l.09-.102 7.779-7.778-7.779 7.778z" id="🎨-Color"/></g></g></svg>
